X:1
T:Hnsaftter
C:Ale Mller
O:Skne
S:Knd genom Ale Mller och Filarfolket (1983)
M:2/4
L:1/8
K:D
|: FD DD | FD DD | ED EF | A2 A2 | FD DD | FD DD | ED EF | D2 D2 :|
|: dd cc | BG | FD EF | A2 A2 | dd cc | BG | FD EF | D2 D2 :|
